X:15
T:Suckey Bids Me. VWMLa.015
%%VWML:Anon2-3049-p11-0
F:http://www.vwml.org/record/Anon2/3049/p11
S:Anon. MS, late 18thC, Vaughan Williams Mem. Library
O:England;Yorkshire
Z:vmp/efdss.Simon Wilson. Reviewed PJH 2008.
M:C
L:1/8
Q:2/4=90
K:G
G2DE G2e2|dBAG AFED|\
G2DE G2e2|dBcA G4:|
|:d2Bc d2g2|fafd ege^c|\
d2Bc d2g2|fae^c d4|
ef {a}gf/e/ edcB|cBAG AFED|\
G2EF G2g2|dBcA G4:|
T:Miss Hoberts Reel. VWMLa.016
R:Reel
S:Anon. MS, late 18thC, Vaughan Williams Mem. Library
O:England;Yorkshire
Z:vmp/efdss.Simon Wilson. Reviewed PJH 2008.
M:C
L:1/8
Q:2/4=90
K:C
cege cege|d>cde d/d/dd2|\
cege cege|AGAB c/c/cc2:|
|:.G2.E2 .F2.D2|CECE D/D/DD2|\
G2E2 [G,4E4c4]|e>dcd c/c/cc2:|
